image/hero-images/cart.svg

<svg width="356" height="161" viewBox="0 0 356 161" fill="none" xmlns="http://www.w3.org/2000/svg">
<rect x="280" width="75.6353" height="75.6353" rx="37.7902" fill="#FFBA49"/>
<path fill-rule="evenodd" clip-rule="evenodd" d="M308.78 28.3343H333.838C334.134 28.3353 334.426 28.4078 334.688 28.5456C334.95 28.6834 335.175 28.8824 335.344 29.1258C335.512 29.3692 335.62 29.6497 335.657 29.9435C335.694 30.2373 335.659 30.5357 335.556 30.8133L330.055 45.482C329.786 46.1953 329.102 46.6702 328.337 46.6702H313.669C312.93 46.6702 312.26 46.2246 311.976 45.5425L303.28 24.6672H299V21H303.278C304.002 20.9984 304.711 21.2118 305.314 21.6133C305.916 22.0149 306.387 22.5863 306.664 23.2553L308.78 28.3343ZM322.837 39.3358H326.504V35.6687H322.837V32.0015H319.169V35.6687H315.502V39.3358H319.169V43.003H322.837V39.3358ZM314.585 54.0044C316.104 54.0044 317.336 52.773 317.336 51.254C317.336 49.735 316.104 48.5037 314.585 48.5037C313.066 48.5037 311.835 49.735 311.835 51.254C311.835 52.773 313.066 54.0044 314.585 54.0044ZM327.42 54.0044C328.939 54.0044 330.171 52.773 330.171 51.254C330.171 49.735 328.939 48.5037 327.42 48.5037C325.901 48.5037 324.67 49.735 324.67 51.254C324.67 52.773 325.901 54.0044 327.42 54.0044Z" fill="white"/>
<path fill-rule="evenodd" clip-rule="evenodd" d="M7.51005 130.831H26.3034C26.5254 130.832 26.7441 130.916 26.9407 131.075C27.1372 131.234 27.3059 131.464 27.4325 131.744C27.559 132.025 27.6395 132.349 27.6673 132.688C27.695 133.027 27.6692 133.371 27.5919 133.692L23.4663 150.618C23.2642 151.441 22.7512 151.989 22.1778 151.989H11.1763C10.6221 151.989 10.1202 151.475 9.907 150.688L3.38449 126.6H0.174805V122.368H3.38312C3.92639 122.366 4.4578 122.612 4.90998 123.076C5.36216 123.539 5.71476 124.198 5.92309 124.97L7.51005 130.831ZM18.0522 143.526H20.8026V139.294H18.0522V135.063H15.3019V139.294H12.5515V143.526H15.3019V147.757H18.0522V143.526ZM11.8639 160.451C13.0032 160.451 13.9268 159.03 13.9268 157.278C13.9268 155.525 13.0032 154.105 11.8639 154.105C10.7246 154.105 9.80103 155.525 9.80103 157.278C9.80103 159.03 10.7246 160.451 11.8639 160.451ZM21.4902 160.451C22.6294 160.451 23.553 159.03 23.553 157.278C23.553 155.525 22.6294 154.105 21.4902 154.105C20.351 154.105 19.4274 155.525 19.4274 157.278C19.4274 159.03 20.351 160.451 21.4902 160.451Z" fill="white"/>
</svg>

<svg fill="none" height="161" width="356" xmlns="http://www.w3.org/2000/svg"><rect fill="#ffba49" height="75.635" rx="37.79" width="75.635" x="280"/><g clip-rule="evenodd" fill="#fff" fill-rule="evenodd"><path d="M308.78 28.334h25.058a1.84 1.84 0 011.718 2.48l-5.501 14.668a1.837 1.837 0 01-1.718 1.188h-14.668a1.836 1.836 0 01-1.693-1.128l-8.696-20.875H299V21h4.278a3.66 3.66 0 013.386 2.255zm14.057 11.002h3.667v-3.667h-3.667v-3.667h-3.668v3.667h-3.667v3.667h3.667v3.667h3.668zm-8.252 14.668a2.75 2.75 0 100-5.501 2.75 2.75 0 000 5.501zm12.835 0a2.75 2.75 0 100-5.501 2.75 2.75 0 000 5.501zM7.51 130.831h18.793c.222.001.441.085.638.244.196.159.365.389.492.669.126.281.207.605.234.944.028.339.002.683-.075 1.004l-4.126 16.926c-.202.823-.715 1.371-1.288 1.371H11.176c-.554 0-1.056-.514-1.269-1.301L3.384 126.6H.174v-4.232h3.21c.542-.002 1.074.244 1.526.708.452.463.805 1.122 1.013 1.894zm10.542 12.695h2.75v-4.232h-2.75v-4.231h-2.75v4.231h-2.75v4.232h2.75v4.231h2.75zm-6.188 16.925c1.14 0 2.063-1.421 2.063-3.173 0-1.753-.924-3.173-2.063-3.173s-2.063 1.42-2.063 3.173c0 1.752.924 3.173 2.063 3.173zm9.626 0c1.14 0 2.063-1.421 2.063-3.173 0-1.753-.924-3.173-2.063-3.173s-2.063 1.42-2.063 3.173c0 1.752.924 3.173 2.063 3.173z"/></g></svg>
